svgs/light/book-bookmark.svg

<svg xmlns="http://www.w3.org/2000/svg" viewBox="0 0 448 512"><!--! Font Awesome Pro 6.3.0 by @fontawesome - https://fontawesome.com License - https://fontawesome.com/license (Commercial License) Copyright 2023 Fonticons, Inc. --><path d="M448 368v-320C448 21.49 426.5 0 400 0h-320C35.82 0 0 35.82 0 80V448c0 35.35 28.66 64 64 64h368c8.844 0 16-7.156 16-16S440.8 480 432 480H416v-66.95C434.6 406.4 448 388.8 448 368zM320 32v174.7L265.1 163.5C263.1 161.2 259.5 160 256 160s-7.062 1.172-10 3.5L192 206.7V32H320zM384 480H64c-17.64 0-32-14.36-32-32s14.36-32 32-32h320V480zM400 384H64c-11.71 0-22.55 3.389-32 8.9V80C32 53.49 53.49 32 80 32H160v208c0 6.156 3.531 11.75 9.062 14.42c5.562 2.672 12.09 1.891 16.94-1.922L256 196.5l69.1 56.02C328.9 254.8 332.4 256 336 256c2.344 0 4.719-.5156 6.938-1.578C348.5 251.8 352 246.2 352 240V32h48C408.8 32 416 39.16 416 48v320C416 376.8 408.8 384 400 384z"/></svg>

<svg xmlns="http://www.w3.org/2000/svg" viewBox="0 0 448 512"><!-- Font Awesome Pro 6.0.0-alpha2 by @fontawesome - https://fontawesome.com License - https://fontawesome.com/license (Commercial License) --><path d="M448 368V48C448 21.49 426.508 0 400 0H80C35.816 0 0 35.816 0 80V448C0 483.346 28.656 512 64 512H432C440.844 512 448 504.844 448 496S440.844 480 432 480H416V413.053C434.586 406.426 448 388.832 448 368ZM320 32V206.703L266 163.5C263.062 161.172 259.531 160 256 160S248.938 161.172 246 163.5L192 206.703V32H320ZM384 480H64C46.359 480 32 465.641 32 448S46.359 416 64 416H384V480ZM400 384H64C52.289 384 41.453 387.389 32 392.9V80C32 53.49 53.492 32 80 32H160V240C160 246.156 163.531 251.75 169.062 254.422C174.625 257.094 181.156 256.312 186 252.5L256 196.484L326 252.5C328.906 254.812 332.438 256 336 256C338.344 256 340.719 255.484 342.938 254.422C348.469 251.75 352 246.156 352 240V32H400C408.836 32 416 39.164 416 48V368C416 376.836 408.836 384 400 384Z"/></svg>
